svg/u26be.svg

<svg viewBox="0 0 128 128" xmlns="http://www.w3.org/2000/svg">
  <path d="M77.01,40.42l-57.2,61.21c0,0,18.24,21.91,47.37,20.59c20.04-0.91,32.06-8.38,41.9-19.68 c12.02-13.81,14.73-34.07,14.03-43.36c-0.91-12.02-9.11-27.69-15.49-32.43S77.01,40.42,77.01,40.42z" fill="#D7CCC6"/>
  <path d="M25.09,20.93C6.13,37.8-6.4,76.1,19.81,101.63c14.03,13.66,59.93,14.35,81.79-14.25 c10.27-13.43,18.51-34.44,12.94-51.15c-2.19-6.56-8.07-11.27-13.3-15.67C76.1-0.57,48.23,0.34,25.09,20.93z" fill="#F1EDEC"/>
  <path d="M69.67,124.09l-3.89-0.32c0.08-0.37,8.18-36.77-15.5-60.63c-10.52-10.6-20.21-15.5-28.81-14.55 c-8.96,0.98-14.92,9.28-14.96,9.36l-1.84-3.73c0.23-0.36,5.51-8.41,16.37-9.6c9.88-1.07,20.67,4.21,32.09,15.71 C78.37,85.78,70.03,122.51,69.67,124.09z" fill="#979892"/>
  <path d="M122,60.81c-0.27-0.18-26.56-18.79-40.13-30.37C69.67,20.04,53.5,5.51,53.35,5.36l2.81-1.76 c0.15,0.14,15.72,13.95,27.88,24.32c13.45,11.47,38.66,29.54,38.93,29.72L122,60.81z" fill="#979892"/>
  <path d="M68.35,16.25c-0.5,0.53-1.79,4.39-2.29,6.54c-0.29,1.23-0.11,3.14,1.43,3.39 c1.72,0.29,2.37-0.7,2.9-2.17c0.53-1.47,1.47-4.13,1.47-4.13s2.74-0.91,4.09-1.31c1.8-0.53,2.33-1.27,2.37-2.21 c0.04-0.94-0.94-2.7-3.97-2C72.48,14.8,69.08,15.47,68.35,16.25z" fill="#ED520A"/>
  <path d="M59.51,8.79c-0.43,0.35-2.49,5.36-2.82,5.99c-0.34,0.63-0.55,2.24,0.63,2.92 c1.18,0.68,2.47-0.49,2.92-1.49c0.44-1,1.73-3.97,1.73-3.97s3.15-0.17,4.28-0.33c1.38-0.19,2.43-0.57,2.35-2.16 c-0.08-1.59-2.65-1.47-5.3-1.3C61.63,8.55,59.8,8.55,59.51,8.79z" fill="#ED520A"/>
  <path d="M53.34,3.01c-0.72,0.33-3.52,3.19-3.89,3.68c-0.37,0.49-0.65,1.55,0.29,2.29s2.25,0.12,2.94-0.37 c0.7-0.49,2-2.09,2-2.09s2.7,0.04,3.48,0.08c0.78,0.04,1.8-0.57,1.8-1.8s-1.43-1.72-2.62-1.76C56.16,3.01,53.79,2.8,53.34,3.01z" fill="#ED520A"/>
  <path d="M79.66,25.66c-0.66,0.52-2.28,6.33-2.62,7.5c-0.34,1.17-0.89,3.67,0.84,4.21 c1.82,0.57,3.04-0.24,3.58-2.3c0.5-1.9,1.64-5.87,1.64-5.87s4.37-1.61,5.33-1.98c0.96-0.37,2.07-1.59,1.4-3.09 c-0.67-1.5-2.58-1.31-3.52-0.97C86.32,23.17,80.3,25.16,79.66,25.66z" fill="#ED520A"/>
  <path d="M90.94,35.34c-0.46,0.6-2,5.97-2.25,7.08c-0.25,1.1-0.24,2.86,1.51,3.31 c1.43,0.37,2.58-0.37,2.9-1.72c0.54-2.24,1.72-5.48,1.72-5.48s3.11-1.76,4.29-2.37c1.19-0.61,1.72-2.29,0.98-3.48 c-0.74-1.19-2.41-1.02-4.05-0.45C94.41,32.81,91.35,34.81,90.94,35.34z" fill="#ED520A"/>
  <path d="M102.13,43.78c-0.58,0.87-0.74,6.01-0.74,6.79s0.57,2.82,2.41,2.82c1.64,0,2.33-1.76,2.33-2.66 c0-0.9,0.2-4.38,0.2-4.38s2.11-1.12,2.86-1.64c1.02-0.7,2.17-2,1.43-3.39s-2.7-0.98-3.97-0.45 C105.76,41.26,102.54,43.17,102.13,43.78z" fill="#ED520A"/>
  <path d="M112.37,52.09c-0.36,0.87-0.38,5.72-0.3,7.03c0.08,1.31,1.19,2.45,2.62,2.41s2.09-1.39,2.04-2.45 s0.08-4.54,0.08-4.54s1.9-1.32,2.41-1.68c0.78-0.53,0.94-1.8,0.25-2.78c-0.7-0.98-2.13-1.27-3.48-0.49 C114.64,50.37,112.51,51.74,112.37,52.09z" fill="#ED520A"/>
  <path d="M119.96,57.52c-0.65,1.12-0.04,6.22-0.04,6.71c0,0.49,0.16,2.17,1.84,2.17c1.47,0,1.96-0.9,2-1.72 c0.04-0.82-0.08-5.44-0.08-5.44s1.43-0.45,0.82-2.33C123.89,55.04,120.64,56.36,119.96,57.52z" fill="#ED520A"/>
  <path d="M62.64,121.41c-0.56,0.99-0.44,2.29,1.67,3.35c2.12,1.06,2.55,1.12,3,1.15 c0.79,0.04,2.6-0.57,3.79-1.23c0.95-0.53,2.12-1.32,1.28-2.86c-0.78-1.44-5.02,0.26-5.02,0.26S63.61,119.7,62.64,121.41z" fill="#ED520A"/>
  <path d="M62.37,112.38c-1.17,1.08-0.4,2.69,1.98,4.23c2.12,1.37,3.31,2.38,4.23,2.38s4.39-1.75,5.29-2.25 c1.37-0.75,1.81-2.25,0.75-3.31s-2.56,0.04-3.31,0.44s-2.47,1.23-2.47,1.23s-2.25-1.63-3-2.16S63.52,111.32,62.37,112.38z" fill="#ED520A"/>
  <path d="M61.23,101.3c-0.96,1.44-0.4,2.95,1.89,4.23c2.29,1.28,5.16,2.42,6.08,2.56s4.54-3,5.24-3.66 s2.64-2.73,1.41-4.14c-1.47-1.68-3.04-0.4-4.45,0.57c-1.08,0.74-2.34,1.67-2.34,1.67s-2.42-0.66-3.83-1.32 C63.83,100.55,62.11,99.98,61.23,101.3z" fill="#ED520A"/>
  <path d="M66.94,89.55c0,0,2.51-2.6,3.44-3.48s2.51-1.76,3.7-0.35s-0.04,3.53-1.15,4.54s-3.92,4.32-4.72,4.45 s-6.65-0.93-8.33-1.81c-0.99-0.52-2.56-1.5-1.67-3.48c0.73-1.64,2.38-1.45,3.61-1.19S66.94,89.55,66.94,89.55z" fill="#ED520A"/>
  <path d="M60.96,75.41c0,0,2.12-4.32,2.82-5.86c0.71-1.54,1.59-2.95,3.57-2.25s1.38,2.57,0.71,4.36 c-0.79,2.12-3,7.71-3.97,8.2c-1.18,0.59-7.4,0.79-9.56,0.75c-0.97-0.02-2.07-0.71-2.03-2.03s0.86-2.24,3-2.6 C56.82,75.76,60.96,75.41,60.96,75.41z" fill="#ED520A"/>
  <path d="M51.18,61.13c-0.22,0.13-4.77,1.96-5.91,2.29c-1.67,0.48-2.25,2.16-1.89,3.35s1.98,1.81,3.88,1.23 c1.89-0.57,7.62-2.03,8.15-2.86s1.41-6.74,1.59-8.28s0.22-3.48-1.81-3.79s-2.86,1.06-3.04,2.51C52.04,56.47,51.18,61.13,51.18,61.13 z" fill="#ED520A"/>
  <path d="M38.92,51.24c0,0,0.35-4.01,0.48-5.2s0.57-2.78,2.64-2.64s1.85,2.82,1.85,4.54s-0.4,6.21-0.66,6.43 s-3.04,2.38-4.49,3.35s-3.79,1.62-4.67,0.3c-0.88-1.32,0.4-3.38,1.81-4.44S38.92,51.24,38.92,51.24z" fill="#ED520A"/>
  <path d="M26.25,37.75c-2.04,0.51-1.94,2.64-1.32,4.8s0.97,3.92,0.97,3.92s-1.45,2.25-2.07,3.04 s-2.56,3.13-0.53,4.8s4.01-1.28,4.76-2.16c0.73-0.85,3.13-4.05,3.13-4.49c0-1.28-1.32-5.99-1.63-7.01S28.54,37.18,26.25,37.75z" fill="#ED520A"/>
  <path d="M11.61,41.12c-0.91,0.62-1.37,2.51-0.22,4.14c0.94,1.34,1.63,2.73,1.63,2.73s-1.23,3.57-1.72,4.72 s-1.06,3.66,0.97,4.45s3.44-1.41,3.97-3.04c0.53-1.63,1.94-5.29,1.98-6.39c0.03-0.73-1.89-4.32-2.73-5.55 C14.65,40.95,12.98,40.2,11.61,41.12z" fill="#ED520A"/>
  <path d="M8.26,53.68c0.23,1.05-0.35,4.01-0.93,6.52c-0.17,0.74-0.42,2.4-2.51,1.89 c-1.81-0.44-1.06-2.73-0.84-3.88c0.13-0.68,0.66-2.86,0.66-2.86s-0.96-0.52-0.93-1.63c0.04-1.45,0.79-1.94,1.98-2.03 S8.08,52.89,8.26,53.68z" fill="#ED520A"/>
</svg>

<svg viewBox="0 0 128 128" xmlns="http://www.w3.org/2000/svg">
  <defs/>
  <path d="M77.01,40.42 L19.81,101.63 C19.81,101.63 38.05,123.54 67.18,122.22 C87.22,121.31 99.24,113.84 109.08,102.54 C121.1,88.73 123.81,68.47 123.11,59.18 C122.2,47.16 114,31.49 107.62,26.75 C101.24,22.01 77.01,40.42 77.01,40.42 Z" fill="#D7CCC6"/>
  <path d="M25.09,20.93 C6.13,37.8 -6.4,76.1 19.81,101.63 C33.84,115.29 79.74,115.98 101.6,87.38 C111.87,73.95 120.11,52.94 114.54,36.23 C112.35,29.67 106.47,24.96 101.24,20.56 C76.1,-0.57 48.23,0.34 25.09,20.93 Z" fill="#F1EDEC"/>
  <path d="M69.67,124.09 L65.78,123.77 C65.86,123.4 73.96,87 50.28,63.14 C39.76,52.54 30.07,47.64 21.47,48.59 C12.51,49.57 6.55,57.87 6.51,57.95 L4.67,54.22 C4.9,53.86 10.18,45.81 21.04,44.62 C30.92,43.55 41.71,48.83 53.13,60.33 C78.37,85.78 70.03,122.51 69.67,124.09 Z" fill="#979892"/>
  <path d="M122,60.81 C121.73,60.63 95.44,42.02 81.87,30.44 C69.67,20.04 53.5,5.51 53.35,5.36 L56.16,3.6 C56.31,3.74 71.88,17.55 84.04,27.92 C97.49,39.39 122.7,57.46 122.97,57.64 L122,60.81 Z" fill="#979892"/>
  <path d="M68.35,16.25 C67.85,16.78 66.56,20.64 66.06,22.79 C65.77,24.02 65.95,25.93 67.49,26.18 C69.21,26.47 69.86,25.48 70.39,24.01 C70.92,22.54 71.86,19.88 71.86,19.88 C71.86,19.88 74.6,18.97 75.95,18.57 C77.75,18.04 78.28,17.3 78.32,16.36 C78.36,15.42 77.38,13.66 74.35,14.36 C72.48,14.8 69.08,15.47 68.35,16.25 Z" fill="#ED520A"/>
  <path d="M59.51,8.79 C59.08,9.14 57.02,14.15 56.69,14.78 C56.35,15.41 56.14,17.02 57.32,17.7 C58.5,18.38 59.79,17.21 60.24,16.21 C60.68,15.21 61.97,12.24 61.97,12.24 C61.97,12.24 65.12,12.07 66.25,11.91 C67.63,11.72 68.68,11.34 68.6,9.75 C68.52,8.16 65.95,8.28 63.3,8.45 C61.63,8.55 59.8,8.55 59.51,8.79 Z" fill="#ED520A"/>
  <path d="M53.34,3.01 C52.62,3.34 49.82,6.2 49.45,6.69 C49.08,7.18 48.8,8.24 49.74,8.98 C50.68,9.72 51.99,9.1 52.68,8.61 C53.38,8.12 54.68,6.52 54.68,6.52 C54.68,6.52 57.38,6.56 58.16,6.6 C58.94,6.64 59.96,6.03 59.96,4.8 C59.96,3.57 58.53,3.08 57.34,3.04 C56.16,3.01 53.79,2.8 53.34,3.01 Z" fill="#ED520A"/>
  <path d="M79.66,25.66 C79,26.18 77.38,31.99 77.04,33.16 C76.7,34.33 76.15,36.83 77.88,37.37 C79.7,37.94 80.92,37.13 81.46,35.07 C81.96,33.17 83.1,29.2 83.1,29.2 C83.1,29.2 87.47,27.59 88.43,27.22 C89.39,26.85 90.5,25.63 89.83,24.13 C89.16,22.63 87.25,22.82 86.31,23.16 C86.32,23.17 80.3,25.16 79.66,25.66 Z" fill="#ED520A"/>
  <path d="M90.94,35.34 C90.48,35.94 88.94,41.31 88.69,42.42 C88.44,43.52 88.45,45.28 90.2,45.73 C91.63,46.1 92.78,45.36 93.1,44.01 C93.64,41.77 94.82,38.53 94.82,38.53 C94.82,38.53 97.93,36.77 99.11,36.16 C100.3,35.55 100.83,33.87 100.09,32.68 C99.35,31.49 97.68,31.66 96.04,32.23 C94.41,32.81 91.35,34.81 90.94,35.34 Z" fill="#ED520A"/>
  <path d="M102.13,43.78 C101.55,44.65 101.39,49.79 101.39,50.57 C101.39,51.35 101.96,53.39 103.8,53.39 C105.44,53.39 106.13,51.63 106.13,50.73 C106.13,49.83 106.33,46.35 106.33,46.35 C106.33,46.35 108.44,45.23 109.19,44.71 C110.21,44.01 111.36,42.71 110.62,41.32 C109.88,39.93 107.92,40.34 106.65,40.87 C105.76,41.26 102.54,43.17 102.13,43.78 Z" fill="#ED520A"/>
  <path d="M112.37,52.09 C112.01,52.96 111.99,57.81 112.07,59.12 C112.15,60.43 113.26,61.57 114.69,61.53 C116.12,61.49 116.78,60.14 116.73,59.08 C116.68,58.02 116.81,54.54 116.81,54.54 C116.81,54.54 118.71,53.22 119.22,52.86 C120,52.33 120.16,51.06 119.47,50.08 C118.77,49.1 117.34,48.81 115.99,49.59 C114.64,50.37 112.51,51.74 112.37,52.09 Z" fill="#ED520A"/>
  <path d="M119.96,57.52 C119.31,58.64 119.92,63.74 119.92,64.23 C119.92,64.72 120.08,66.4 121.76,66.4 C123.23,66.4 123.72,65.5 123.76,64.68 C123.8,63.86 123.68,59.24 123.68,59.24 C123.68,59.24 125.11,58.79 124.5,56.91 C123.89,55.04 120.64,56.36 119.96,57.52 Z" fill="#ED520A"/>
  <path d="M62.64,121.41 C62.08,122.4 62.2,123.7 64.31,124.76 C66.43,125.82 66.86,125.88 67.31,125.91 C68.1,125.95 69.91,125.34 71.1,124.68 C72.05,124.15 73.22,123.36 72.38,121.82 C71.6,120.38 67.36,122.08 67.36,122.08 C67.36,122.08 63.61,119.7 62.64,121.41 Z" fill="#ED520A"/>
  <path d="M62.37,112.38 C61.2,113.46 61.97,115.07 64.35,116.61 C66.47,117.98 67.66,118.99 68.58,118.99 C69.5,118.99 72.97,117.24 73.87,116.74 C75.24,115.99 75.68,114.49 74.62,113.43 C73.56,112.37 72.06,113.47 71.31,113.87 C70.56,114.27 68.84,115.1 68.84,115.1 C68.84,115.1 66.59,113.47 65.84,112.94 C65.09,112.41 63.52,111.32 62.37,112.38 Z" fill="#ED520A"/>
  <path d="M61.23,101.3 C60.27,102.74 60.83,104.25 63.12,105.53 C65.41,106.81 68.28,107.95 69.2,108.09 C70.12,108.23 73.74,105.09 74.44,104.43 C75.14,103.77 77.08,101.7 75.85,100.29 C74.38,98.61 72.81,99.89 71.4,100.86 C70.32,101.6 69.06,102.53 69.06,102.53 C69.06,102.53 66.64,101.87 65.23,101.21 C63.83,100.55 62.11,99.98 61.23,101.3 Z" fill="#ED520A"/>
  <path d="M66.94,89.55 C66.94,89.55 69.45,86.95 70.38,86.07 C71.31,85.19 72.89,84.31 74.08,85.72 C75.27,87.13 74.04,89.25 72.93,90.26 C71.82,91.27 69.01,94.58 68.21,94.71 C67.41,94.84 61.56,93.78 59.88,92.9 C58.89,92.38 57.32,91.4 58.21,89.42 C58.94,87.78 60.59,87.97 61.82,88.23 C63.05,88.49 66.94,89.55 66.94,89.55 Z" fill="#ED520A"/>
  <path d="M60.96,75.41 C60.96,75.41 63.08,71.09 63.78,69.55 C64.49,68.01 65.37,66.6 67.35,67.3 C69.33,68 68.73,69.87 68.06,71.66 C67.27,73.78 65.06,79.37 64.09,79.86 C62.91,80.45 56.69,80.65 54.53,80.61 C53.56,80.59 52.46,79.9 52.5,78.58 C52.54,77.26 53.36,76.34 55.5,75.98 C56.82,75.76 60.96,75.41 60.96,75.41 Z" fill="#ED520A"/>
  <path d="M51.18,61.13 C50.96,61.26 46.41,63.09 45.27,63.42 C43.6,63.9 43.02,65.58 43.38,66.77 C43.74,67.96 45.36,68.58 47.26,68 C49.15,67.43 54.88,65.97 55.41,65.14 C55.94,64.31 56.82,58.4 57,56.86 C57.18,55.32 57.22,53.38 55.19,53.07 C53.16,52.76 52.33,54.13 52.15,55.58 C52.04,56.47 51.18,61.13 51.18,61.13 Z" fill="#ED520A"/>
  <path d="M38.92,51.24 C38.92,51.24 39.27,47.23 39.4,46.04 C39.53,44.85 39.97,43.26 42.04,43.4 C44.11,43.54 43.89,46.22 43.89,47.94 C43.89,49.66 43.49,54.15 43.23,54.37 C42.97,54.59 40.19,56.75 38.74,57.72 C37.29,58.69 34.95,59.34 34.07,58.02 C33.19,56.7 34.47,54.64 35.88,53.58 C37.29,52.52 38.92,51.24 38.92,51.24 Z" fill="#ED520A"/>
  <path d="M26.25,37.75 C24.21,38.26 24.31,40.39 24.93,42.55 C25.55,44.71 25.9,46.47 25.9,46.47 C25.9,46.47 24.45,48.72 23.83,49.51 C23.21,50.3 21.27,52.64 23.3,54.31 C25.33,55.98 27.31,53.03 28.06,52.15 C28.79,51.3 31.19,48.1 31.19,47.66 C31.19,46.38 29.87,41.67 29.56,40.65 C29.25,39.63 28.54,37.18 26.25,37.75 Z" fill="#ED520A"/>
  <path d="M11.61,41.12 C10.7,41.74 10.24,43.63 11.39,45.26 C12.33,46.6 13.02,47.99 13.02,47.99 C13.02,47.99 11.79,51.56 11.3,52.71 C10.81,53.86 10.24,56.37 12.27,57.16 C14.3,57.95 15.71,55.75 16.24,54.12 C16.77,52.49 18.18,48.83 18.22,47.73 C18.25,47 16.33,43.41 15.49,42.18 C14.65,40.95 12.98,40.2 11.61,41.12 Z" fill="#ED520A"/>
  <path d="M8.26,53.68 C8.49,54.73 7.91,57.69 7.33,60.2 C7.16,60.94 6.91,62.6 4.82,62.09 C3.01,61.65 3.76,59.36 3.98,58.21 C4.11,57.53 4.64,55.35 4.64,55.35 C4.64,55.35 3.68,54.83 3.71,53.72 C3.75,52.27 4.5,51.78 5.69,51.69 C6.88,51.6 8.08,52.89 8.26,53.68 Z" fill="#ED520A"/>
</svg>
